X: 907
T: the Fat Man's Fancy   #2
R: jig
%S: s:3 b:13(5+4+4)
B: O'Neill's 1850 #907
O: Stack
Z: Tom Keays (htkeays@mailbox.syr.edu)
Z: Corrected by John Chambers
N: Compacted via repeats and multiple endings [JC]
%abc 1.6
M: 6/8
L: 1/8
K: A
"^A"|: E | A3 BAB | (c3/e/f/g/) agf | gec BAG | AcA [1 BG :|[2 A2 ||
"^B"|: c | f2f fec | efg agf | agf edc | BcB Bce ||
         | f2f fec | efg a2b | c'ba gba | gfg a2 :|
